packages/icons/svgs/solid/Source=wind.svg

<svg xmlns="http://www.w3.org/2000/svg" width="12" height="12" viewBox="0 0 12 12"><g clip-path="url(#a)"><path d="M5.25 5.25H0v-1.5h5.25c.45 0 .75-.3.75-.75s-.3-.75-.75-.75-.75.3-.75.75H3C3 1.725 3.975.75 5.25.75S7.5 1.725 7.5 3s-.975 2.25-2.25 2.25Zm4.5 6c-1.275 0-2.25-.975-2.25-2.25H9c0 .45.3.75.75.75s.75-.3.75-.75-.3-.75-.75-.75H0v-1.5h9.75C11.025 6.75 12 7.725 12 9s-.975 2.25-2.25 2.25Z"/></g><defs><clipPath id="a"><path fill="#fff" d="M0 0h12v12H0z"/></clipPath></defs></svg>

<svg width="12" height="12" viewBox="0 0 12 12" fill="none" xmlns="http://www.w3.org/2000/svg">
<g clip-path="url(#clip0_852_788)">
<path d="M5.25 5.25H0V3.75H5.25C5.7 3.75 6 3.45 6 3C6 2.55 5.7 2.25 5.25 2.25C4.8 2.25 4.5 2.55 4.5 3H3C3 1.725 3.975 0.75 5.25 0.75C6.525 0.75 7.5 1.725 7.5 3C7.5 4.275 6.525 5.25 5.25 5.25Z" fill="black"/>
<path d="M9.75 11.25C8.475 11.25 7.5 10.275 7.5 9H9C9 9.45 9.3 9.75 9.75 9.75C10.2 9.75 10.5 9.45 10.5 9C10.5 8.55 10.2 8.25 9.75 8.25H0V6.75H9.75C11.025 6.75 12 7.725 12 9C12 10.275 11.025 11.25 9.75 11.25Z" fill="black"/>
</g>
<defs>
<clipPath id="clip0_852_788">
<rect width="12" height="12" fill="white"/>
</clipPath>
</defs>
</svg>
